Newaita/actions/32/chronometer.svg

<?xml version="1.0" encoding="UTF-8"?>
<svg xmlns="http://www.w3.org/2000/svg" xmlns:xlink="http://www.w3.org/1999/xlink" width="32pt" height="32pt" viewBox="0 0 32 32" version="1.1">
<g id="surface1">
<path style=" stroke:none;fill-rule:nonzero;fill:rgb(25.882354%,25.882354%,25.882354%);fill-opacity:1;" d="M 15.875 1.574219 C 13.046875 1.574219 10.414062 2.371094 8.183594 3.757812 L 6.777344 2.347656 L 2.097656 7.027344 L 3.507812 8.433594 C 2.121094 10.664062 1.324219 13.296875 1.324219 16.125 C 1.324219 24.1875 7.8125 30.679688 15.875 30.679688 C 23.9375 30.679688 30.429688 24.1875 30.429688 16.125 C 30.429688 13.296875 29.632812 10.664062 28.246094 8.433594 L 29.65625 7.027344 L 24.976562 2.347656 L 23.570312 3.757812 C 21.339844 2.371094 18.703125 1.574219 15.875 1.574219 Z M 15.875 3.558594 C 22.839844 3.558594 28.445312 9.164062 28.445312 16.125 C 28.445312 23.089844 22.839844 28.695312 15.875 28.695312 C 8.914062 28.695312 3.308594 23.089844 3.308594 16.125 C 3.308594 9.164062 8.914062 3.558594 15.875 3.558594 Z M 15.875 3.558594 "/>
<path style=" stroke:none;fill-rule:nonzero;fill:rgb(93.725491%,32.549021%,31.37255%);fill-opacity:1;" d="M 15.875 4.878906 L 15.875 16.125 L 27.121094 16.125 C 27.121094 9.894531 22.117188 4.878906 15.902344 4.878906 Z M 15.875 4.878906 "/>
</g>
</svg>

<svg xmlns="http://www.w3.org/2000/svg" width="32pt" height="32pt" viewBox="0 0 32 32"><path d="M15.875 1.574c-2.828 0-5.46.797-7.691 2.184l-1.407-1.41-4.68 4.68 1.41 1.406a14.508 14.508 0 0 0-2.183 7.691A14.52 14.52 0 0 0 15.875 30.68 14.524 14.524 0 0 0 30.43 16.125c0-2.828-.797-5.46-2.184-7.691l1.41-1.407-4.68-4.68-1.406 1.41a14.522 14.522 0 0 0-7.695-2.183zm0 1.985a12.54 12.54 0 0 1 12.57 12.566c0 6.965-5.605 12.57-12.57 12.57a12.54 12.54 0 0 1-12.566-12.57A12.54 12.54 0 0 1 15.875 3.559zm0 0" fill="#424242"/><path d="M15.875 4.879v11.246h11.246c0-6.23-5.004-11.246-11.219-11.246zm0 0" fill="#ef5350"/></svg>
